!!!!SEGMENT: pl-wnifc--13846--037_anonim--piesni-polskie-i-ruskie-ludu-galicyjskiego-37-alboz-my-to-jacy-jacy.krn
!!!kernsource:
!!!cenid: 18xx:3259
!!!COM: Anonim
!!!COM-rismid: pe30004985
!!!CDT:
!!!CNT:
!!!GTL: Pieśni polskie i ruskie ludu galicyjskiego
!!!OTL: 37. Alboż my to jacy, jacy
!!!PDT: 1833
!!!AGN:
!!!SMS-siglum: PL-Wnifc
!!!SMS-shelfmark: 13846
!!!SMS-shelfwork: 037 G
!!!NIFC-rismid: 1001036918
!!!URL-scan: http://repozytorium.nifc.pl/skany/pl-wnifc-nut--13846
!!!ONB-nifc:
**kern	**kern	**kern	**text
*group2	*group2	*group1	*
*part2	*part2	*part1	*part1
*staff3	*staff2	*staff1	*staff1
*I"[Piano]	*I"[Piano]	*I"[Soprano]	*
*Ipiano	*Ipiano	*Isoprn	*
*ICklav	*ICklav	*ICvox	*
*IGacmp	*IGacmp	*IGsolo	*
*clefF4	*clefG2	*clefG2	*
*k[f#]	*k[f#]	*k[f#]	*
*G:	*G:	*G:	*
*M2/4	*M2/4	*M2/4	*
=1-	=1-	=1-	=1-
!	!	!LO:TX:a:B:t=Krakowiak. ☼	!
8GGG/ 8GG/	8B/L 8d/ 8g/	8g/	Al-
8r	8d/ 8f#/ 8a/	8a/	-boż
8GG/ 8G/	8g/ 8b/	8b/	my
8r	8a/J 8cc/	8cc\	to
=2	=2	=2	=2
8GGG/ 8GG/	8b/L 8dd/	8dd\	ja-
8r	8a#X/ 8cc#X/	8cc#X\	-cy,
8GG/ 8G/	8ccn/ 8ee/	8ee\	ja-
8r	8b/J 8dd/	8dd\	-cy,
!!LO:LB:g=original
=3	=3	=3	=3
8GGG/ 8GG/	8b\L 8dd\	8dd\	ja-
8r	8a#X\ 8cc#X\	8cc#X\	-cy,
8GG/ 8G/	8ccn\ 8ee\	8ee\	ja-
8r	8b\J 8dd\	8dd\	-cy,
=4	=4	=4	=4
.	8qd/	.	.
8D\L 8F#\ 8A\	8dd\L	8dd\	chłop-
8d\	8dd\J	8dd\	-cy
8D\ 8F#\ 8A\	8.ccn\L	8.ccn\L	Kra-
8d\J	.	.	.
.	16a\Jk	16a\Jk	-ko-
=5	=5	=5	=5
8D\L 8G\ 8B\	8g/	8g/	-wia-
8d\	4b/	4b/	-cy,
8D\ 8G\ 8B\	.	.	.
8d\J	8r	8r	.
!!LO:LB:g=original
==6	==6	==6	==6
.	(>8qd/	.	.
*tremolo	*	*	*
8D\L 8F#\ 8A\	8dd\L)	8dd\	czer-
8d\	8dd\J	8dd\	-wo-
8D\ 8F#\ 8A\	8.cc\L	(>\8.ccL	-na
8d\J	.	.	.
.	16a\Jk	16a\Jk)	.
=7	=7	=7	=7
8DL\ 8G\ 8B\	8g\	8g/	cza-
8d\	4gg\	4gg\	-pecz-
8D\ 8G\ 8B\	.	.	.
8dJ\	16ff#\LL	(>16ff#\LL	-ka,
.	16ee\JJ	16ee\JJ)	.
=8	=8	=8	=8
8DL\ 8F#\ 8A\	8dd\L	8dd\	na
8d\	8dd\J	8dd\	cal
8D\ 8F#\ 8A\	8cc\L	8cc\	pod-
8dJ\	8a\J	8a/	-ko-
!!LO:LB:g=original
=9	=9	=9	=9
!LO:TX:b:t=Podług różnicy w długości strofy niektóre takty\n<... ..........> niektóre <..........>	!LO:TX:b:t=P:problem:Na dole strony jest dopisek, częśiowo urwany w skanie: "Podług różnicy, w długości stofy niektóre takty....	!	!
8DL\ 8G\ 8B\	8g/	8g/	-wecz-
8d\	4b\	4b/	-ka,
8D\ 8G\ 8B\	.	.	.
8dJ\	8r	8r	.
=10	=10	=10	=10
8DL\ 8F#\ 8A\	8dd\L	8dd\	nie-
8d\	8dd\J	8dd\	-bie-
8D\ 8F#\ 8A\	8.cc\L	(<8.cc\	-ska
8dJ\	.	.	.
.	16a\Jk	16a/)	.
!!LO:PB:g=original
=11	=11	=11	=11
8D\ 8G\ 8B\	8g/	8g/	suk-
8B\L 8d\	4gg\	4gg\	-ma-
8D\ 8G\ 8B\	.	.	.
8d\J	(>16ff#\LL	(>16ff#\LL	-na
.	16ee\JJ)	16ee\JJ)	.
=12	=12	=12	=12
8DL\ 8F#\ 8A\	8dd\L	8dd\	da-
8d\	8dd\J	8dd\	-na,
8D\ 8F#\ 8A\	8.cc\L	8.cc\	mo-
8d\J	.	.	.
.	16a\Jk	16a/	-ja
*Xtremolo	*	*	*
=13	=13	=13	=13
8G\L 8B\	8g/	8g/	da-
8d\J	4g/	4g/	-na.
!LO:N:vis=4	!	!	!
8G\ 8B\	.	.	.
8r	8r	8r	.
==	==	==	==
*-	*-	*-	*-
!!!system-decoration: g1,[{g2}]
!!!EED: Jędrzej Mróz
!!!ESR: 2021-11-10
!!!RDF**kern: > = above
!!!RDF**kern: < = below
